X: 5999
T: Candyfloss, The
R: polka
M: 2/4
K: Dmajor
|:AF Dd|cA GF/G/|AF DF|A/B/A/G/ FD|
AF Dd|cA GF/G/|Ad ce|1 d2 dB:|2 d2 de||
|:fd Be/f/|ge cd/e/|fd BG|Fe cA|
fd Be/f/|ge cA|fd Bc|1 d2 de:|2 d2 dB||

